X:2401
T:The Scotch Circle
P:Lady Erskine
C:D. McLaren
R:Reel (nx32)
B:RSCDS 24-1
Z:Anselm Lingnau <anselm@strathspey.org>
M:C
L:1/8
K:Am
E|"Am"A2AB c2BA|"G"Bdgd BGGB|"Am"A2AB cdea|"Em"gegB "A"A2 AE|
  "Am"A2AB c2BA|"G"Bdgd BGGB|"Am"A2AB cdea|"Em"gegB "A"A2 A||
e|"Am"abag ega2|"G"gage deg2|"Am"abag e^fge|"G"dBgB "Am"A2 Ag|
  "Am"abag ega2|"G"gage deg2|"Am"aabg a^f"G"ge|"Em"dBgB "Am"A2 A|]
